X: 11807
T: Ellen O'Leary's
R: jig
M: 6/8
K: Dmajor
AG|:FDD EFG|Adc A2 G|FDD GEE|FDD EDE|
FDD EFG|Adc A2 G|FDD GEE|EDA D2 E:|
|:fed edc|Adc d2 e|fed edc|ABA A2 g|
f2d edc|Adc A2 G|FDD GEE|EDA D3:|

